X:1 % 17
T:Almer (4.)
C:traditionell
R:Jodler
A:Salzkammergut
B:"Pfeiermusik aus dem Salzkammergut", zus. A.Ruttner durch V.Derschmidt revidierte Ausgabe, Verlag E. Friedhuber, Wels, 2000, s.22
N:im buch ganz in D, zweistimmig, erster ton:1.stimme: f#', 2.stimme a'
Z:abc transcripton Simon Wascher
M:3/4
L:1/8
K:D
V:1
P:4
F2 |\
F2d2d2 | edc3B | ABdced | fed2F2 |\
F2f2f2 | edc3B | ABdcfe | d2z2 :|
V:2
A2 |\
A2f2f2 | gfe3d | cdfegf | agf2A2 |\
A2a2a2 | gfe3d | cdfeag | f2z2 :|
